X: 10793
T: COTILLION No. 6. tune 5
C:
%R: jig
B: Elias Howe "The Musician's Companion" Part 1 1842 p.79 #3
S: http://imslp.org/wiki/The_Musician's_Companion_(Howe,_Elias)
Z: 2015 John Chambers <jc:trillian.mit.edu>
M: 6/8
L: 1/8
K: Bb
% - - - - - - - - - - - - - - - - - - - - - - - - -
(f/e/) |\
ded cdc | B2F FGA | BcB cdc | ded c2(f/e/) |\
ded cdc | B2F FGA | BcB c2d | ecA B2 H|]
(d/e/) |\
fdb f2(d/e/) | fdb f2(d/e/) | fdb fdb | fed c2(d/e/) |\
fdb f2(d/e/) | fdb fga | b2g cd=e | fg=e fe"^D.C."_e |]
K: Bbm
F |\
(B2=A) (B2A) | B2c d2f | (fe).d (cB).=A | B2F F2F |\
(B2=A) (B2A) | B2c d2f | (g2f) e2d | c3- "^D.C."c2 |]
% - - - - - - - - - - Dance description - - - - - - - - - -
%%begintext align
%% 2 ladies forward and back,
%% 2 gentlemen the same,
%% balance 4,
%% and turn partners,
%% grand chain,
%% promenade 8,
%% side couples the same.
%%endtext
%- - - - - - - - - - - - - - - - - - - - - - - - -
%%sep 1 1 300


